image/box-icons-item1.svg

<svg fill="none" height="48" viewBox="0 0 48 48" width="48" xmlns="http://www.w3.org/2000/svg"><path clip-rule="evenodd" d="m21.6514.0000025h4.6972c2.006-.0000656 3.6786-.0001203 5.0065.1784085 1.4016.188439 2.667.602959 3.6839 1.619819 1.0168 1.01687 1.4314 2.28228 1.6198 3.68387.1785 1.32788.1785 3.00056.1784 5.0065v2.9069c1.2872.001 2.3781.0108 3.2796.1025 1.0571.1075 2.038.3413 2.9221.9321.6703.4479 1.2459 1.0235 1.6938 1.6938.5908.8841.8246 1.865.9321 2.9221.1027 1.0099.1027 2.2573.1026 3.7522v21.853h.5582c.9247 0 1.6744.7496 1.6744 1.6744 0 .9247-.7497 1.6744-1.6744 1.6744h-44.65118c-.924757 0-1.67442-.7497-1.67442-1.6744 0-.9248.749663-1.6744 1.67442-1.6744h.55814v-21.8531c-.00004-1.4949-.00007-2.7422.10266-3.7521.10753-1.0571.34131-2.038.93204-2.9221.44793-.6703 1.02351-1.2459 1.69389-1.6938.88409-.5908 1.865-.8246 2.92206-.9321.90153-.0917 1.99236-.1015 3.27959-.1025v-2.9069c-.0001-2.00594-.0001-3.67862.1784-5.0065.1884-1.40159.603-2.667 1.6198-3.68387 1.0169-1.01686 2.2823-1.43138 3.6839-1.619819 1.3279-.1785288 3.0005-.1784741 5.0065-.1784085zm-10.4886 16.7443975c-1.30067.0015-2.21949.0119-2.94067.0853-.79227.0806-1.15834.223-1.40046.3848-.30472.2036-.56635.4652-.76996.77-.16178.2421-.30425.6082-.38485 1.4004-.08344.8203-.08546 1.8962-.08546 3.4988v21.7675h5.5814zm3.3488 27.9068h7.814v-5.0233c0-.9247.7496-1.6744 1.6744-1.6744s1.6744.7497 1.6744 1.6744v5.0233h7.814v-34.0465c0-2.15226-.0036-3.59797-.1486-4.67638-.1385-1.03024-.3779-1.47116-.6688-1.7621s-.7319-.53032-1.7621-.66883c-1.0784-.14499-2.5241-.14855-4.6763-.14855h-4.4652c-2.1522 0-3.5979.00356-4.6763.14855-1.0302.13851-1.4712.37789-1.7621.66883s-.5303.73186-.6688 1.7621c-.145 1.07841-.1486 2.52412-.1486 4.67638zm22.3256 0h5.5814v-21.7675c0-1.6026-.002-2.6785-.0855-3.4988-.0806-.7922-.223-1.1583-.3848-1.4004-.2036-.3048-.4652-.5664-.77-.77-.2421-.1618-.6082-.3042-1.4004-.3848-.7212-.0734-1.64-.0838-2.9407-.0853zm-18.9767-36.2791c0-.92476.7496-1.67442 1.6744-1.67442h8.9302c.9248 0 1.6744.74966 1.6744 1.67442 0 .92475-.7496 1.6744-1.6744 1.6744h-8.9302c-.9248 0-1.6744-.74965-1.6744-1.6744zm0 6.6977c0-.9248.7496-1.6744 1.6744-1.6744h8.9302c.9248 0 1.6744.7496 1.6744 1.6744 0 .9247-.7496 1.6744-1.6744 1.6744h-8.9302c-.9248 0-1.6744-.7497-1.6744-1.6744zm0 6.6976c0-.9247.7496-1.6744 1.6744-1.6744h8.9302c.9248 0 1.6744.7497 1.6744 1.6744 0 .9248-.7496 1.6745-1.6744 1.6745h-8.9302c-.9248 0-1.6744-.7497-1.6744-1.6745zm0 6.6977c0-.9247.7496-1.6744 1.6744-1.6744h8.9302c.9248 0 1.6744.7497 1.6744 1.6744 0 .9248-.7496 1.6744-1.6744 1.6744h-8.9302c-.9248 0-1.6744-.7496-1.6744-1.6744z" fill="#4b4b4b" fill-rule="evenodd"/></svg>

<svg width="48" height="48" viewBox="0 0 48 48" fill="none" xmlns="http://www.w3.org/2000/svg">
<path fill-rule="evenodd" clip-rule="evenodd" d="M21.6514 2.50289e-06H26.3486C28.3546 -6.3101e-05 30.0272 -0.000117801 31.3551 0.178411C32.7567 0.36685 34.0221 0.78137 35.039 1.79823C36.0558 2.8151 36.4704 4.08051 36.6588 5.4821C36.8373 6.80998 36.8373 8.48266 36.8372 10.4886L36.8372 13.3955C38.1244 13.3965 39.2153 13.4063 40.1168 13.498C41.1739 13.6055 42.1548 13.8393 43.0389 14.4301C43.7092 14.878 44.2848 15.4536 44.7327 16.1239C45.3235 17.008 45.5573 17.9889 45.6648 19.046C45.7675 20.0559 45.7675 21.3033 45.7674 22.7982V44.6512H46.3256C47.2503 44.6512 48 45.4008 48 46.3256C48 47.2503 47.2503 48 46.3256 48H1.67442C0.749663 48 0 47.2503 0 46.3256C0 45.4008 0.749663 44.6512 1.67442 44.6512H2.23256L2.23256 22.7981C2.23252 21.3032 2.23249 20.0559 2.33522 19.046C2.44275 17.9889 2.67653 17.008 3.26726 16.1239C3.71519 15.4536 4.29077 14.878 4.96115 14.4301C5.84524 13.8393 6.82615 13.6055 7.88321 13.498C8.78474 13.4063 9.87557 13.3965 11.1628 13.3955L11.1628 10.4886C11.1627 8.48266 11.1627 6.80998 11.3412 5.4821C11.5296 4.08051 11.9442 2.8151 12.961 1.79823C13.9779 0.78137 15.2433 0.36685 16.6449 0.178411C17.9728 -0.000117801 19.6454 -6.3101e-05 21.6514 2.50289e-06ZM11.1628 16.7444C9.86213 16.7459 8.94331 16.7563 8.22213 16.8297C7.42986 16.9103 7.06379 17.0527 6.82167 17.2145C6.51695 17.4181 6.25532 17.6797 6.05171 17.9845C5.88993 18.2266 5.74746 18.5927 5.66686 19.3849C5.58342 20.2052 5.5814 21.2811 5.5814 22.8837V44.6512H11.1628V16.7444ZM14.5116 44.6512H22.3256V39.6279C22.3256 38.7032 23.0752 37.9535 24 37.9535C24.9248 37.9535 25.6744 38.7032 25.6744 39.6279V44.6512H33.4884V10.6047C33.4884 8.45244 33.4848 7.00673 33.3398 5.92832C33.2013 4.89808 32.9619 4.45716 32.671 4.16622C32.3801 3.87528 31.9391 3.6359 30.9089 3.49739C29.8305 3.3524 28.3848 3.34884 26.2326 3.34884H21.7674C19.6152 3.34884 18.1695 3.3524 17.0911 3.49739C16.0609 3.6359 15.6199 3.87528 15.329 4.16622C15.0381 4.45716 14.7987 4.89808 14.6602 5.92832C14.5152 7.00673 14.5116 8.45244 14.5116 10.6047V44.6512ZM36.8372 44.6512H42.4186V22.8837C42.4186 21.2811 42.4166 20.2052 42.3331 19.3849C42.2525 18.5927 42.1101 18.2266 41.9483 17.9845C41.7447 17.6797 41.4831 17.4181 41.1783 17.2145C40.9362 17.0527 40.5701 16.9103 39.7779 16.8297C39.0567 16.7563 38.1379 16.7459 36.8372 16.7444V44.6512ZM17.8605 8.3721C17.8605 7.44734 18.6101 6.69768 19.5349 6.69768H28.4651C29.3899 6.69768 30.1395 7.44734 30.1395 8.3721C30.1395 9.29685 29.3899 10.0465 28.4651 10.0465H19.5349C18.6101 10.0465 17.8605 9.29685 17.8605 8.3721ZM17.8605 15.0698C17.8605 14.145 18.6101 13.3954 19.5349 13.3954H28.4651C29.3899 13.3954 30.1395 14.145 30.1395 15.0698C30.1395 15.9945 29.3899 16.7442 28.4651 16.7442H19.5349C18.6101 16.7442 17.8605 15.9945 17.8605 15.0698ZM17.8605 21.7674C17.8605 20.8427 18.6101 20.093 19.5349 20.093H28.4651C29.3899 20.093 30.1395 20.8427 30.1395 21.7674C30.1395 22.6922 29.3899 23.4419 28.4651 23.4419H19.5349C18.6101 23.4419 17.8605 22.6922 17.8605 21.7674ZM17.8605 28.4651C17.8605 27.5404 18.6101 26.7907 19.5349 26.7907H28.4651C29.3899 26.7907 30.1395 27.5404 30.1395 28.4651C30.1395 29.3899 29.3899 30.1395 28.4651 30.1395H19.5349C18.6101 30.1395 17.8605 29.3899 17.8605 28.4651Z" fill="#4B4B4B"/>
</svg>
